X:1
T:Blackburn, LM
T:Blackburn, LM
T:William Hay Macdowell Hunter Aitken, 1912
T:Public Domain Courtesy of the Cyber Hymnal™
C:William Hay Macdowell Hunter Aitken, 1912
Z:Public Domain
Z:Courtesy of the Cyber Hymnal™
%%score ( 1 2 ) ( 3 4 )
L:1/8
M:4/4
K:F
V:1 treble 
V:2 treble 
V:3 bass 
V:4 bass 
V:1
 [CA]4 [CG]2 [CF]2 | [FB]4 [FA]4 | (A2 G2) (F2 [CG]2) | [CA]8 | [Fc]4 [EB]2 [FA]2 | %5
 (A2 G2) (G2 F2) | [CF]4 [=B,F]4 | [CE]8 | [CE]4 [CF]2 [CG]2 | [CA]4 [CG]4 | (c2 =B2) (A2 B2) | %11
 ([Ec]4 [GB]4) | [FA]4 [F^G]2 [FA]2 | (B2 A2) ([EG]2 F2) | [FA]4 [EG]4 | F8 |] %16
V:2
 x8 | x8 | E4 F2 x2 | x8 | x8 | E4 D4 | x8 | x8 | x8 | x8 | F4 F4 | x8 | x8 | F4 F2 x2 | x8 | F8 |] %16
V:3
 [F,A,]4 [F,A,]2 [F,A,]2 | [F,D]4 [F,C]4 | (C2 B,2) B,4 | [F,A,]8 | A,4 [G,C]2 [F,C]2 | %5
 [^C,A,]4 [D,A,]4 | [D,A,]4 [G,,G,]4 | [C,G,]8 | [B,C]4 [A,C]2 [G,B,]2 | [F,A,]4 [E,C]4 | %10
 [D,D]4 (C2 D2) | C8 | [F,C]4 [F,=B,]2 [F,C]2 | ([B,,D]2 [F,C]2) ([C,B,]2 A,B,) | [C,C]4 [C,B,]4 | %15
 [F,A,]8 |] %16
V:4
 x8 | x8 | C,4 (D,2 E,2) | x8 | A,4 x4 | x8 | x8 | x8 | x8 | x8 | x4 G,4 | (C,4 E,4) | x8 | %13
 x6 D,2 | x8 | x8 |] %16

